X:1129
T:Blind Billy
R:slipjig
B:O'Neill's 1129
Z:Transcribed by Michael D. Long, 1/9/99
M:9/8
L:1/8
K:A
ded A2 f ecA | ded A2 g f2 e | ded A2 f ecA | fBB Bce f2 e :|
a2 a a2 f ecA | ada a2 e f2 e | fga ada ece | fBB Bce f2 e |
ada ada ecA | ada a2 e f2 e | fga ada ece | fBB Bce f2 e |]


